src/assets/compendia/icons/tokens-core/department-medical-rank-8-token.svg

<svg xmlns="http://www.w3.org/2000/svg" xml:space="preserve" style="fill-rule:evenodd;clip-rule:evenodd;stroke-linecap:round;stroke-miterlimit:1.5" viewBox="0 0 256 256"><path d="M0 0h256v256H0z" style="fill:none"/><g><circle cx="128" cy="128" r="128"/><path d="M128 0c70.645 0 128 57.355 128 128s-57.355 128-128 128S0 198.645 0 128 57.355 0 128 0m0 8C61.77 8 8 61.77 8 128s53.77 120 120 120 120-53.77 120-120S194.23 8 128 8" style="fill:#3db8f5"/><path d="M1512.12 41.875v.265l.48 11.885c.04.865.04 1.733.11 2.594.08.928.73 1.524 1.61 1.567.05.003.1.004.14.004.94 0 1.56-.486 1.76-1.39.04-.208.06-.424.07-.637.03-.951.05-1.902.08-2.853.12-2.99.23-5.981.36-8.97.01-.226-.06-.321-.25-.408-.79-.361-1.57-.737-2.35-1.107-.66-.313-1.32-.625-2.01-.95m-2.9-11.095q-.18-.002-.39.061c-3.25.996-4.31 4.771-1.95 7.17a7.3 7.3 0 0 0 1.84 1.361c2.07 1.052 4.17 2.026 6.26 3.028.67.324 1.36.631 2.02.968.49.245.93.555 1.07 1.128.09.376-.02.558-.39.609-.21.027-.27.112-.27.307-.02.791-.06 1.581-.09 2.372-.01.145-.02.289-.02.462 1.29-.032 2.4-.357 3.19-1.405 1.03-1.366.92-3.352-.24-4.786-.66-.81-1.52-1.326-2.45-1.764a521 521 0 0 1-7.23-3.451c-.56-.274-1.05-.686-1.56-1.057-.23-.173-.31-.446-.3-.742.01-.56.26-.946.85-1.142.37-.122.77-.159 1.2-.243-.07-.755-.14-1.52-.22-2.284-.01-.067-.04-.172-.08-.189-.41-.155-.78-.403-1.24-.403m.81 10.262c-.2 0-.41.048-.65.17-1.49.775-2.44 2.322-2.22 3.817.32 2.17 2.3 3.193 4.13 3.193.12 0 .25-.005.37-.014-.05-1.009-.09-2.019-.13-3.02-.34-.079-.65-.132-.95-.234-.13-.044-.29-.17-.33-.291-.06-.205.04-.41.25-.502.29-.125.59-.228.95-.363-.03-.703-.07-1.438-.11-2.173-.01-.055-.04-.137-.09-.158-.41-.192-.78-.425-1.22-.425m-.88-21.399c-.39.057-.76.087-1.12.167-1.74.389-2.96 1.378-3.46 3.116-.5 1.776-.18 3.397 1.15 4.738.98.99 2.21 1.594 3.47 2.145 2.69 1.18 5.39 2.327 8.08 3.497.47.204.94.425 1.38.686.45.271.83.648 1 1.17.24.742.11 1.432-.81 1.667-.29.074-.59.13-.91.201l-.12 1.574c-.08.832-.08.831.68 1.199.09.047.18.106.28.142.06.022.13.042.2.042.01 0 .03-.001.05-.004 1.06-.192 2.02-.613 2.75-1.441 1.28-1.441 1.45-3.454.41-5.184-.76-1.277-1.89-2.129-3.24-2.712-2.89-1.25-5.79-2.477-8.66-3.759-.79-.349-1.51-.842-2.24-1.312-.22-.146-.46-.413-.51-.661-.25-1.278.14-1.893 1.32-2.094.23-.041.47-.061.72-.091-.14-1.029-.27-2.032-.42-3.086m2.17 11.936c.07.811.14 1.587.21 2.363.06.788.14 1.576.19 2.365.01.232.1.351.31.448 1.04.477 2.07.973 3.1 1.461l1.87.88c.02-.131.04-.223.05-.318.11-1.459.22-2.92.34-4.379.02-.19-.06-.261-.22-.328-1.87-.804-3.74-1.614-5.61-2.421-.07-.031-.15-.044-.24-.071m8.45-11.588h-.02c-.13 1.028-.27 2.031-.4 3.068.16.01.26.013.37.023.71.072 1.35.307 1.95.738.76.551.5 2.388-.52 2.597-.52.107-1.04.193-1.57.225-.66.04-.67.01-.74.644-.1.793-.17 1.587-.26 2.403.12.019.21.047.3.047h.01c.78-.034 1.57-.002 2.33-.125 2.74-.444 4.48-3.03 3.87-5.722-.41-1.779-1.59-2.879-3.26-3.505a5.7 5.7 0 0 0-2.06-.393M1515.09-6h-1.22c-.06.02-.12.048-.18.057-1.52.217-2.77.924-3.73 2.119-2.1 2.626-1.52 6.387 1.26 8.362.28.203.56.433.78.702.13.161.24.468.17.626-.07.15-.38.254-.59.267-.26.017-.52.021-.78.021l-.95-.006c-1.12.003-1.87.839-1.7 1.95.47 3.117.99 6.226 1.44 9.346.41 2.845.76 5.699 1.12 8.55.03.218.1.336.31.424 1.12.472 2.24.961 3.35 1.443 1.15.495 2.3.988 3.48 1.497.02-.162.04-.295.06-.43.05-.489.1-.979.16-1.467.28-2.323.55-4.648.87-6.967.35-2.573.74-5.141 1.12-7.709.24-1.553.52-3.099.74-4.653.17-1.166-.56-1.982-1.73-1.984l-.91.002c-.29 0-.57-.002-.85-.011-.58-.019-.77-.375-.41-.821.25-.319.59-.586.92-.835 1.78-1.347 2.62-3.141 2.38-5.357-.23-2.139-1.39-3.692-3.35-4.598-.55-.256-1.17-.356-1.76-.528m6.65 14.99c-.19 0-.33.01-.36.264-.27 1.722-.55 3.44-.82 5.16-.12.78.06 1.154.59 1.154q.255 0 .6-.109c5.17-1.591 10.35-3.181 15.52-4.783.4-.125.8-.303 1.16-.511.46-.256.79-.644 1.03-1.172h-.42l-7.73-.001-3.59.001zm-14.61-.005h-.01c-3.73.007-7.47.008-11.21.008h-6.44c.11.183.18.302.25.414.47.682 1.16 1.026 1.92 1.26q7.77 2.395 15.54 4.787c.24.075.45.112.62.112.54 0 .72-.378.59-1.167-.27-1.666-.54-3.331-.79-5-.05-.319-.15-.414-.47-.414m-2.64-5.855h-18.21c.06.118.1.212.15.302.82 1.51 1.65 3.017 2.47 4.531.12.216.24.292.49.292 4.08-.006 8.15-.007 12.23-.007h5.76c-.07-.905-.27-1.689-.97-2.276-.32-.269-.6-.581-.89-.876-.55-.549-1.25-1.016-1.03-1.966m38.19 0h-18.16c-.01.071-.04.134-.03.195.04.575-.23.995-.64 1.371-.51.48-1 .994-1.51 1.483-.58.562-.69 1.293-.77 2.055.11.006.19.014.28.014 5.92.001 11.85 0 17.78.005.19 0 .3-.06.39-.235.84-1.551 1.69-3.095 2.54-4.642.04-.072.07-.147.12-.246m-49.61-6.237c-2.55 0-5.09.001-7.64.003-.88 0-1.46.546-1.46 1.431 0 .348.09.727.25 1.039.46.916.98 1.802 1.46 2.708.11.217.24.299.49.299 4.17-.006 8.33-.007 12.5-.007h5.76c.01-.075.03-.115.03-.155 0-1.027.01-2.054-.01-3.081-.01-.763-.41-1.309-1.04-1.697-.65-.399-1.37-.536-2.12-.537zm44.26 0c-3.26 0-6.52.003-9.77.017-.52.002-1.07.132-1.56.31-1.05.377-1.5 1.095-1.51 2.208v2.938h18.23c.05 0 .1.006.14.006q.045.001.09-.011c.08-.024.19-.06.22-.125.62-1.159 1.22-2.323 1.83-3.486v-.642c-.2-.729-.61-1.214-1.43-1.214z" style="fill:#3db8f5;fill-rule:nonzero" transform="translate(-3647 70.956)scale(2.4926)"/><path d="M1916.84 1455.5c3.71.33 7.44.5 11.16.5s7.45-.17 11.16-.5l-1.68-19.73c-3.15.29-6.32.43-9.48.43s-6.33-.14-9.48-.43z" style="fill:none;stroke:#3db8f5;stroke-width:8.66px" transform="matrix(.9375 0 0 .9091 -1679.5 -1075.64)"/><path d="M1894.87 1451.5a124.2 124.2 0 0 0 66.26 0l-4.97-19.12c-9.18 2.53-18.65 3.82-28.16 3.82s-18.97-1.29-28.16-3.82z" style="fill:none;stroke:#3db8f5;stroke-width:8.66px" transform="matrix(.9375 0 0 .9091 -1679.5 -1075.64)"/><path d="M1873.9 1443.63c16.95 8.15 35.41 12.37 54.1 12.37s37.15-4.22 54.1-12.37l-8.12-17.94c-14.4 6.92-30.09 10.51-45.98 10.51s-31.58-3.59-45.98-10.51z" style="fill:none;stroke:#3db8f5;stroke-width:8.66px" transform="matrix(.9375 0 0 .9091 -1679.5 -1075.64)"/></g></svg>

<?xml version="1.0" encoding="UTF-8" standalone="no"?>
<!DOCTYPE svg PUBLIC "-//W3C//DTD SVG 1.1//EN" "http://www.w3.org/Graphics/SVG/1.1/DTD/svg11.dtd">
<svg width="100%" height="100%" viewBox="0 0 256 256" version="1.1" xmlns="http://www.w3.org/2000/svg" xmlns:xlink="http://www.w3.org/1999/xlink" xml:space="preserve" xmlns:serif="http://www.serif.com/" style="fill-rule:evenodd;clip-rule:evenodd;stroke-linecap:round;stroke-miterlimit:1.5;">
    <g transform="matrix(1,0,0,1,-8100,-3300)">
        <g transform="matrix(1,0,0,1,8100,3300)">
            <rect id="department-medical-rank-8-token" x="0" y="0" width="256" height="256" style="fill:none;"/>
            <g id="department-medical-rank-8-token1" serif:id="department-medical-rank-8-token">
                <circle cx="128" cy="128" r="128"/>
                <path d="M128,0C198.645,0 256,57.355 256,128C256,198.645 198.645,256 128,256C57.355,256 0,198.645 0,128C0,57.355 57.355,0 128,0ZM128,8C61.77,8 8,61.77 8,128C8,194.23 61.77,248 128,248C194.23,248 248,194.23 248,128C248,61.77 194.23,8 128,8Z" style="fill:rgb(61,184,245);"/>
                <g transform="matrix(2.4926,0,0,2.4926,-3647,70.9556)">
                    <g id="Medical">
                        <path id="Medical1" serif:id="Medical" d="M1512.12,41.875C1512.12,41.992 1512.12,42.066 1512.12,42.14C1512.28,46.102 1512.44,50.063 1512.6,54.025C1512.64,54.89 1512.64,55.758 1512.71,56.619C1512.79,57.547 1513.44,58.143 1514.32,58.186C1514.37,58.189 1514.42,58.19 1514.46,58.19C1515.4,58.19 1516.02,57.704 1516.22,56.8C1516.26,56.592 1516.28,56.376 1516.29,56.163C1516.32,55.212 1516.34,54.261 1516.37,53.31C1516.49,50.32 1516.6,47.329 1516.73,44.34C1516.74,44.114 1516.67,44.019 1516.48,43.932C1515.69,43.571 1514.91,43.195 1514.13,42.825C1513.47,42.512 1512.81,42.2 1512.12,41.875ZM1509.22,30.78C1509.1,30.78 1508.97,30.798 1508.83,30.841C1505.58,31.837 1504.52,35.612 1506.88,38.011C1507.41,38.55 1508.05,39.028 1508.72,39.372C1510.79,40.424 1512.89,41.398 1514.98,42.4C1515.65,42.724 1516.34,43.031 1517,43.368C1517.49,43.613 1517.93,43.923 1518.07,44.496C1518.16,44.872 1518.05,45.054 1517.68,45.105C1517.47,45.132 1517.41,45.217 1517.41,45.412C1517.39,46.203 1517.35,46.993 1517.32,47.784C1517.31,47.929 1517.3,48.073 1517.3,48.246C1518.59,48.214 1519.7,47.889 1520.49,46.841C1521.52,45.475 1521.41,43.489 1520.25,42.055C1519.59,41.245 1518.73,40.729 1517.8,40.291C1515.38,39.152 1512.97,38.015 1510.57,36.84C1510.01,36.566 1509.52,36.154 1509.01,35.783C1508.78,35.61 1508.7,35.337 1508.71,35.041C1508.72,34.481 1508.97,34.095 1509.56,33.899C1509.93,33.777 1510.33,33.74 1510.76,33.656C1510.69,32.901 1510.62,32.136 1510.54,31.372C1510.53,31.305 1510.5,31.2 1510.46,31.183C1510.05,31.028 1509.68,30.78 1509.22,30.78ZM1510.03,41.042C1509.83,41.042 1509.62,41.09 1509.38,41.212C1507.89,41.987 1506.94,43.534 1507.16,45.029C1507.48,47.199 1509.46,48.222 1511.29,48.222C1511.41,48.222 1511.54,48.217 1511.66,48.208C1511.61,47.199 1511.57,46.189 1511.53,45.188C1511.19,45.109 1510.88,45.056 1510.58,44.954C1510.45,44.91 1510.29,44.784 1510.25,44.663C1510.19,44.458 1510.29,44.253 1510.5,44.161C1510.79,44.036 1511.09,43.933 1511.45,43.798C1511.42,43.095 1511.38,42.36 1511.34,41.625C1511.33,41.57 1511.3,41.488 1511.25,41.467C1510.84,41.275 1510.47,41.042 1510.03,41.042ZM1509.15,19.643C1508.76,19.7 1508.39,19.73 1508.03,19.81C1506.29,20.199 1505.07,21.188 1504.57,22.926C1504.07,24.702 1504.39,26.323 1505.72,27.664C1506.7,28.654 1507.93,29.258 1509.19,29.809C1511.88,30.989 1514.58,32.136 1517.27,33.306C1517.74,33.51 1518.21,33.731 1518.65,33.992C1519.1,34.263 1519.48,34.64 1519.65,35.162C1519.89,35.904 1519.76,36.594 1518.84,36.829C1518.55,36.903 1518.25,36.959 1517.93,37.03C1517.89,37.561 1517.85,38.083 1517.81,38.604C1517.73,39.436 1517.73,39.435 1518.49,39.803C1518.58,39.85 1518.67,39.909 1518.77,39.945C1518.83,39.967 1518.9,39.987 1518.97,39.987C1518.98,39.987 1519,39.986 1519.02,39.983C1520.08,39.791 1521.04,39.37 1521.77,38.542C1523.05,37.101 1523.22,35.088 1522.18,33.358C1521.42,32.081 1520.29,31.229 1518.94,30.646C1516.05,29.396 1513.15,28.169 1510.28,26.887C1509.49,26.538 1508.77,26.045 1508.04,25.575C1507.82,25.429 1507.58,25.162 1507.53,24.914C1507.28,23.636 1507.67,23.021 1508.85,22.82C1509.08,22.779 1509.32,22.759 1509.57,22.729C1509.43,21.7 1509.3,20.697 1509.15,19.643ZM1511.32,31.579C1511.39,32.39 1511.46,33.166 1511.53,33.942C1511.59,34.73 1511.67,35.518 1511.72,36.307C1511.73,36.539 1511.82,36.658 1512.03,36.755C1513.07,37.232 1514.1,37.728 1515.13,38.216C1515.75,38.507 1516.36,38.795 1517,39.096C1517.02,38.965 1517.04,38.873 1517.05,38.778C1517.16,37.319 1517.27,35.858 1517.39,34.399C1517.41,34.209 1517.33,34.138 1517.17,34.071C1515.3,33.267 1513.43,32.457 1511.56,31.65C1511.49,31.619 1511.41,31.606 1511.32,31.579ZM1519.77,19.991L1519.75,19.991C1519.62,21.019 1519.48,22.022 1519.35,23.059C1519.51,23.069 1519.61,23.072 1519.72,23.082C1520.43,23.154 1521.07,23.389 1521.67,23.82C1522.43,24.371 1522.17,26.208 1521.15,26.417C1520.63,26.524 1520.11,26.61 1519.58,26.642C1518.92,26.682 1518.91,26.652 1518.84,27.286C1518.74,28.079 1518.67,28.873 1518.58,29.689C1518.7,29.708 1518.79,29.736 1518.88,29.736L1518.89,29.736C1519.67,29.702 1520.46,29.734 1521.22,29.611C1523.96,29.167 1525.7,26.581 1525.09,23.889C1524.68,22.11 1523.5,21.01 1521.83,20.384C1521.18,20.136 1520.5,19.991 1519.77,19.991ZM1515.09,-6L1513.87,-6C1513.81,-5.98 1513.75,-5.952 1513.69,-5.943C1512.17,-5.726 1510.92,-5.019 1509.96,-3.824C1507.86,-1.198 1508.44,2.563 1511.22,4.538C1511.5,4.741 1511.78,4.971 1512,5.24C1512.13,5.401 1512.24,5.708 1512.17,5.866C1512.1,6.016 1511.79,6.12 1511.58,6.133C1511.32,6.15 1511.06,6.154 1510.8,6.154L1509.85,6.148C1508.73,6.151 1507.98,6.987 1508.15,8.098C1508.62,11.215 1509.14,14.324 1509.59,17.444C1510,20.289 1510.35,23.143 1510.71,25.994C1510.74,26.212 1510.81,26.33 1511.02,26.418C1512.14,26.89 1513.26,27.379 1514.37,27.861C1515.52,28.356 1516.67,28.849 1517.85,29.358C1517.87,29.196 1517.89,29.063 1517.91,28.928C1517.96,28.439 1518.01,27.949 1518.07,27.461C1518.35,25.138 1518.62,22.813 1518.94,20.494C1519.29,17.921 1519.68,15.353 1520.06,12.785C1520.3,11.232 1520.58,9.686 1520.8,8.132C1520.97,6.966 1520.24,6.15 1519.07,6.148L1518.16,6.15C1517.87,6.15 1517.59,6.148 1517.31,6.139C1516.73,6.12 1516.54,5.764 1516.9,5.318C1517.15,4.999 1517.49,4.732 1517.82,4.483C1519.6,3.136 1520.44,1.342 1520.2,-0.874C1519.97,-3.013 1518.81,-4.566 1516.85,-5.472C1516.3,-5.728 1515.68,-5.828 1515.09,-6ZM1521.74,8.99C1521.55,8.99 1521.41,9 1521.38,9.254C1521.11,10.976 1520.83,12.694 1520.56,14.414C1520.44,15.194 1520.62,15.568 1521.15,15.568C1521.32,15.568 1521.52,15.531 1521.75,15.459C1526.92,13.868 1532.1,12.278 1537.27,10.676C1537.67,10.551 1538.07,10.373 1538.43,10.165C1538.89,9.909 1539.22,9.521 1539.46,8.993L1539.04,8.993C1536.47,8.993 1533.89,8.992 1531.31,8.992L1527.72,8.993L1521.74,8.99ZM1507.13,8.985L1507.12,8.985C1503.39,8.992 1499.65,8.993 1495.91,8.993L1489.47,8.993C1489.58,9.176 1489.65,9.295 1489.72,9.407C1490.19,10.089 1490.88,10.433 1491.64,10.667C1496.82,12.263 1502,13.86 1507.18,15.454C1507.42,15.529 1507.63,15.566 1507.8,15.566C1508.34,15.566 1508.52,15.188 1508.39,14.399C1508.12,12.733 1507.85,11.068 1507.6,9.399C1507.55,9.08 1507.45,8.985 1507.13,8.985ZM1504.49,3.13L1486.28,3.13C1486.34,3.248 1486.38,3.342 1486.43,3.432C1487.25,4.942 1488.08,6.449 1488.9,7.963C1489.02,8.179 1489.14,8.255 1489.39,8.255L1489.39,8.255C1493.47,8.249 1497.54,8.248 1501.62,8.248L1507.38,8.248C1507.31,7.343 1507.11,6.559 1506.41,5.972C1506.09,5.703 1505.81,5.391 1505.52,5.096C1504.97,4.547 1504.27,4.08 1504.49,3.13ZM1542.68,3.13L1524.52,3.13C1524.51,3.201 1524.48,3.264 1524.49,3.325C1524.53,3.9 1524.26,4.32 1523.85,4.696C1523.34,5.176 1522.85,5.69 1522.34,6.179C1521.76,6.741 1521.65,7.472 1521.57,8.234C1521.68,8.24 1521.76,8.248 1521.85,8.248C1527.77,8.249 1533.7,8.248 1539.63,8.253L1539.63,8.253C1539.82,8.253 1539.93,8.193 1540.02,8.018C1540.86,6.467 1541.71,4.923 1542.56,3.376C1542.6,3.304 1542.63,3.229 1542.68,3.13ZM1493.07,-3.107C1490.52,-3.107 1487.98,-3.106 1485.43,-3.104C1484.55,-3.104 1483.97,-2.558 1483.97,-1.673C1483.97,-1.325 1484.06,-0.946 1484.22,-0.634C1484.68,0.282 1485.2,1.168 1485.68,2.074C1485.79,2.291 1485.92,2.373 1486.17,2.373L1486.17,2.373C1490.34,2.367 1494.5,2.366 1498.67,2.366L1504.43,2.366C1504.44,2.291 1504.46,2.251 1504.46,2.211C1504.46,1.184 1504.47,0.157 1504.45,-0.87C1504.44,-1.633 1504.04,-2.179 1503.41,-2.567C1502.76,-2.966 1502.04,-3.103 1501.29,-3.104C1498.55,-3.106 1495.81,-3.107 1493.07,-3.107ZM1537.33,-3.107C1534.07,-3.107 1530.81,-3.104 1527.56,-3.09C1527.04,-3.088 1526.49,-2.958 1526,-2.78C1524.95,-2.403 1524.5,-1.685 1524.49,-0.572L1524.49,2.366L1542.72,2.366C1542.77,2.366 1542.82,2.372 1542.86,2.372C1542.89,2.372 1542.92,2.37 1542.95,2.361C1543.03,2.337 1543.14,2.301 1543.17,2.236C1543.79,1.077 1544.39,-0.087 1545,-1.25L1545,-1.892C1544.8,-2.621 1544.39,-3.106 1543.57,-3.106L1537.33,-3.107Z" style="fill:rgb(61,184,245);fill-rule:nonzero;"/>
                    </g>
                </g>
                <g transform="matrix(0.9375,0,0,0.909091,-1679.5,-1075.64)">
                    <path d="M1916.84,1455.5C1920.55,1455.83 1924.28,1456 1928,1456C1931.72,1456 1935.45,1455.83 1939.16,1455.5L1937.48,1435.77C1934.33,1436.06 1931.16,1436.2 1928,1436.2C1924.84,1436.2 1921.67,1436.06 1918.52,1435.77L1916.84,1455.5Z" style="fill:none;stroke:rgb(61,184,245);stroke-width:8.66px;"/>
                </g>
                <g transform="matrix(0.9375,0,0,0.909091,-1679.5,-1075.64)">
                    <path d="M1894.87,1451.5C1905.68,1454.49 1916.81,1456 1928,1456C1939.19,1456 1950.32,1454.49 1961.13,1451.5L1956.16,1432.38C1946.98,1434.91 1937.51,1436.2 1928,1436.2C1918.49,1436.2 1909.03,1434.91 1899.84,1432.38L1894.87,1451.5Z" style="fill:none;stroke:rgb(61,184,245);stroke-width:8.66px;"/>
                </g>
                <g transform="matrix(0.9375,0,0,0.909091,-1679.5,-1075.64)">
                    <path d="M1873.9,1443.63C1890.85,1451.78 1909.31,1456 1928,1456C1946.69,1456 1965.15,1451.78 1982.1,1443.63L1973.98,1425.69C1959.58,1432.61 1943.89,1436.2 1928,1436.2C1912.11,1436.2 1896.42,1432.61 1882.02,1425.69L1873.9,1443.63Z" style="fill:none;stroke:rgb(61,184,245);stroke-width:8.66px;"/>
                </g>
            </g>
        </g>
    </g>
</svg>
